X:1
T:Hold Up the Grand Old Bible
T:Hold Up the Grand Old Bible
T:Charles Hutchinson Gabriel
T:Charles Hutchinson Gabriel, 1907
T:Public Domain Courtesy of the Cyber Hymnal™
T:Public Domain Courtesy of the Cyber Hymnal™
C:Charles Hutchinson Gabriel
Z:Public Domain
Z:Courtesy of the Cyber Hymnal™
%%score ( 1 2 ) ( 3 4 )
L:1/8
Q:1/4=105
M:4/4
K:G
V:1 treble 
V:2 treble 
V:3 bass 
V:4 bass 
V:1
 DE[DF] | G2 [DG]2 [DG][GB][Gd][GB] | [EA]4 [CE][CE][DF][EG] | [DB]2 [CA]2 [CF]2 D2 | d4 [Gd]DEF | %5
w: 1.~Hold up the|grand old Bi- ble to the|peo- ple! De- ny it|or ne- glect it|ne- ver! Un- fail- ing|
w: 2.~Hold up the|grand old Bi- ble and pro-|claim it The Word of|God by pro- phets|spok- en; His seal im-|
w: 3.~Hold up the|grand old Bi- ble of our|fa- thers, And send it|un- to ev- ’ry|na- tion; It is the|
w: 4.~Hold up the|grand old Bi- ble, proud- ly|own it, Be- lieve, and|search its sac- red|pag- es; There you may|
 G2 [DG]2 [DG][GB][Gd][GB] | [EA]4 [Ec][CE][DF][EG] | [Dd]2 [DB]2 [^CG]2 [CB]2 | %8
w: it has stood the test of|ag- es, And it shall|stand un- changed for-|
w: print- ed glows up- on its|pag- es, And not a|pre- cept can be|
w: cloud by day, the fire in|dark- ness, That lights the|way un- to sal-|
w: find the way of life e-|tern- al— Im- mor- tal|life through end- less|
 [CA]4 !fermata![B,G] ||"^Refrain" BBB | (z [GB]) x5 | B^c^d | (z [Ge]2) [=Fd]2 x3 | %13
w: ev- er!|||||
w: brok- en.|O bless- èd||* book, the|* on-|
w: va- tion.|||||
w: ag- es.|||||
 [Ec]2 E2 [EB]2 [EG]2 | [DF]2 [FA]2 [Ed]/!fermata![Fd]/D EF | G2 [DG]2 [DG][GB][Gc][Gd] | %16
w: |||
w: * ly book, The|pow’rs of earth can change it ne-|ver! The test of fire and|
w: |||
w: |||
 [Ae]2 [Ge]2 [GA][GA][GB][Fc] | [Gd]2 [Fd]2 [Gd]2 [GB]2 | A4 !fermata![DG] |] %19
w: |||
w: flood through ag- es it hath|stood, And it shall|stand un-|
w: |||
w: |||
V:2
 DE x | G2 x6 | x8 | x6 D2 | (D2 F2) DEF x | G2 x6 | x8 | x8 | x5 || x3 | B4- ^DEF | x3 | %12
 e4- =FGA x | x8 | x5 DEF | G2 x6 | x8 | x8 | (F2 E2) x |] %19
V:3
 D,E,F, | G,2 [G,B,]2 [G,B,][G,D][G,B,][G,D] | [C,C]4 [C,G,][C,G,][C,G,][C,G,] | %3
w: ~ ~ ~|~ ~ ~ ~ ~ ~|~ ~ ~ ~ ~|
 [D,F,]2 [D,F,]2 [D,A,]2 [C,F,]2 | ([B,,G,]2 [A,,C]2) [G,,B,]D,E,F, | %5
w: ~ ~ ~ ~|~ * ~ ~ ~ ~|
 G,2 [G,B,]2 [G,B,][G,D][G,B,][G,D] | [C,C]4 [C,G,][C,G,][C,G,][C,G,] | %7
w: ~ ~ ~ ~ ~ ~|~ ~ ~ ~ ~|
 [B,,G,]2 [G,,G,]2 [E,A,]2 [A,,G,]2 | [D,F,]4 !fermata![G,,G,] || z z2 | %10
w: ~ ~ ~ ~|~ ~||
 z [B,,B,][^C,B,][^D,B,] [E,B,] x2 | z z2 | z [^D,B,][E,B,][F,B,] [G,B,]2 [^G,,^G,B,]2 | %13
w: ~ O bless- èd||book The on- ly book|
 [A,,A,]2 [B,,^G,]2 [C,A,]2 [^C,A,]2 | [D,A,]2 [D,D]2 [D,A,]/[D,A,]/D, E,F, | %15
w: ||
 G,2 [G,B,]2 [G,B,][=F,D][E,C][D,B,] | [C,C]2 [C,C]2 [C,E][C,E][B,,D][A,,C] | %17
w: ||
 [G,,B,]2 [A,,C]2 [B,,D]2 [G,,D]2 | [B,,C]4 !fermata![G,,B,] |] %19
w: ||
V:4
 D,E,F, | G,2 x6 | x8 | x8 | x5 D,E,F, | G,2 x6 | x8 | x8 | x5 || x3 | x7 | x3 | x8 | x8 | %14
 x5 D,E,F, | G,2 x6 | x8 | x8 | x5 |] %19

